src/pos-icons/network-off.svg

<svg height="24" viewBox="0 0 24 24" width="24" xmlns="http://www.w3.org/2000/svg"><path d="m1 5.27 4 4v5.73a2 2 0 0 0 2 2h4v2h-1a1 1 0 0 0 -1 1h-7v2h7a1 1 0 0 0 1 1h4a1 1 0 0 0 1-1h2.73l2 2 1.27-1.28-18.72-18.72zm14 14.73a1 1 0 0 0 -1-1h-1v-1.73l2.73 2.73zm2.69-3.13-12.56-12.56c.28-.76 1.01-1.31 1.87-1.31h10a2 2 0 0 1 2 2v10c0 .86-.55 1.59-1.31 1.87m4.31 3.13v1.18l-1.18-1.18z"/></svg>

<?xml version="1.0" encoding="UTF-8"?><!DOCTYPE svg PUBLIC "-//W3C//DTD SVG 1.1//EN" "http://www.w3.org/Graphics/SVG/1.1/DTD/svg11.dtd"><svg xmlns="http://www.w3.org/2000/svg" xmlns:xlink="http://www.w3.org/1999/xlink" version="1.1" id="mdi-network-off" width="24" height="24" viewBox="0 0 24 24"><path d="M1,5.27L5,9.27V15A2,2 0 0,0 7,17H11V19H10A1,1 0 0,0 9,20H2V22H9A1,1 0 0,0 10,23H14A1,1 0 0,0 15,22H17.73L19.73,24L21,22.72L2.28,4L1,5.27M15,20A1,1 0 0,0 14,19H13V17.27L15.73,20H15M17.69,16.87L5.13,4.31C5.41,3.55 6.14,3 7,3H17A2,2 0 0,1 19,5V15C19,15.86 18.45,16.59 17.69,16.87M22,20V21.18L20.82,20H22Z" /></svg>
